apps/documenteditor/mobile/resources/icons/ios/icon-wrap-top-bottom.svg

<svg width="24" height="24" viewBox="0 0 24 24" xmlns="http://www.w3.org/2000/svg">
<path d="M22.75 20.7959C23.1642 20.796 23.5 21.1317 23.5 21.5459C23.4999 21.96 23.1641 22.2958 22.75 22.2959H1.75C1.33582 22.2959 1.00006 21.9601 1 21.5459C1 21.1317 1.33579 20.7959 1.75 20.7959H22.75ZM22.75 0.795898C23.1642 0.795959 23.5 1.13172 23.5 1.5459C23.4999 1.96002 23.1641 2.29584 22.75 2.2959H1.75C1.33582 2.2959 1.00006 1.96006 1 1.5459C1 1.13168 1.33579 0.795898 1.75 0.795898H22.75Z" fill="#444444"/>
<path d="M14.6416 5.7959C14.8058 5.79592 14.959 5.87256 15.0576 6.00391L15.4277 6.49707H16.5693C16.8476 6.49707 17.1153 6.60849 17.3125 6.80566C17.5097 7.00285 17.707 7.64453 17.707 7.64453H18.4736C18.7649 7.6446 18.9989 7.87864 18.999 8.16992V8.69629C18.9988 9.66439 18.2144 9.93848 17.2461 9.93848H16.4365C16.2992 9.93863 16.1874 10.0501 16.1865 10.1875L16.1787 11.4014V15.6748C16.1787 16.3083 15.6656 16.822 15.0322 16.8223C14.3986 16.8223 13.8848 16.3084 13.8848 15.6748V14.1367L10.4434 13.3809V15.6748C10.4434 16.3083 9.92938 16.8221 9.2959 16.8223C8.6623 16.8223 8.14844 16.3084 8.14844 15.6748V11.0859C7.08461 10.336 7.00196 9.3414 7 8.21777C6.99954 7.90107 7.25847 7.64453 7.5752 7.64453C7.89179 7.64474 8.14287 7.90113 8.14355 8.21777C8.14535 9.05889 8.24975 9.93848 9.2959 9.93848H13.5L14.1289 6.22949C14.1706 5.97981 14.3875 5.7959 14.6416 5.7959Z" fill="#446ECA"/>
</svg>

<svg xmlns="http://www.w3.org/2000/svg" width="24" height="24" fill="none" viewBox="0 0 24 24">
  <g class="icon-wrap-top-bottom">
    <path stroke="#444" stroke-linecap="round" stroke-width="1.5" d="M1.75 1.546h21m-21 20h21" class="icon-stroke-gray-primary"/>
    <path fill="#446ECA" d="M14.642 5.796a.52.52 0 0 1 .416.208l.37.493h1.141c.279 0 .546.111.744.309.197.197.394.839.394.839h.767c.29 0 .525.234.525.525v.526c0 .968-.785 1.242-1.753 1.242h-.81a.25.25 0 0 0-.25.25L16.18 11.4v4.274a1.147 1.147 0 1 1-2.294 0v-1.538l-3.442-.756v2.294a1.148 1.148 0 0 1-2.295 0v-4.59C7.085 10.337 7.002 9.342 7 8.219c0-.317.258-.573.575-.573a.57.57 0 0 1 .569.573c.001.84.106 1.72 1.152 1.72H13.5l.629-3.709a.52.52 0 0 1 .513-.433Z" class="icon-fill-blue-primary"/>
  </g>
</svg>
